svgs/duotone/file-exclamation.svg

<svg xmlns="http://www.w3.org/2000/svg" viewBox="0 0 384 512"><!-- Font Awesome Pro 6.0.0-alpha2 by @fontawesome - https://fontawesome.com License - https://fontawesome.com/license (Commercial License) --><defs><style>.fa-secondary{opacity:.4}</style></defs><path d="M256 128V0H48C21.492 0 0 21.492 0 48V464C0 490.508 21.492 512 48 512H336C362.508 512 384 490.508 384 464V128H256ZM168 216C168 202.75 178.75 192 192 192S216 202.75 216 216V328C216 341.25 205.25 352 192 352S168 341.25 168 328V216ZM192 448C174.328 448 160 433.672 160 416C160 398.326 174.328 384 192 384S224 398.326 224 416C224 433.672 209.672 448 192 448Z" class="fa-secondary"/><path d="M256 0V128H384L256 0ZM192 352C205.25 352 216 341.25 216 328V216C216 202.75 205.25 192 192 192S168 202.75 168 216V328C168 341.25 178.75 352 192 352ZM192 384C174.328 384 160 398.326 160 416C160 433.672 174.328 448 192 448S224 433.672 224 416C224 398.326 209.672 384 192 384Z" class="fa-primary"/></svg>

<svg xmlns="http://www.w3.org/2000/svg" viewBox="0 0 384 512"><!--! Font Awesome Pro 6.3.0 by @fontawesome - https://fontawesome.com License - https://fontawesome.com/license (Commercial License) Copyright 2023 Fonticons, Inc. --><defs><style>.fa-secondary{opacity:.4}</style></defs><path class="fa-primary" d="M256 0v128h128L256 0zM192 352c13.25 0 24-10.75 24-24v-112C216 202.8 205.3 192 192 192S168 202.8 168 216v112C168 341.3 178.8 352 192 352zM192 383.1c-17.67 0-32 14.33-32 32c0 17.67 14.33 32 32 32s32-14.33 32-32C224 398.3 209.7 383.1 192 383.1z"/><path class="fa-secondary" d="M256 128V0H48C21.49 0 0 21.49 0 48v416C0 490.5 21.49 512 48 512h288c26.51 0 48-21.49 48-48V128H256zM168 216C168 202.8 178.8 192 192 192s24 10.75 24 24v112c0 13.25-10.75 24-24 24s-24-10.75-24-24V216zM192 448c-17.67 0-32-14.33-32-32c0-17.67 14.33-32 32-32s32 14.33 32 32C224 433.7 209.7 448 192 448z"/></svg>
